svgs/thin/calendar-image.svg

<svg xmlns="http://www.w3.org/2000/svg" viewBox="0 0 448 512"><!--! Font Awesome Pro 6.0.0-alpha3 by @fontawesome - https://fontawesome.com License - https://fontawesome.com/license (Commercial License) --><path d="M139.3 353.9l-46.69 64.02c-5.344 7.359-6.094 16.94-1.969 24.98C94.72 450.1 102.9 456 112 456h224c8.875 0 16.97-4.859 21.12-12.66c4.219-7.812 3.781-17.27-1.156-24.66l-85.34-128c-8.938-13.38-31-13.38-39.94 0L183.6 361.4l-5.5-7.5C169.2 341.5 148.2 341.5 139.3 353.9zM184.1 389.4L244 299.6c3-4.469 10.31-4.469 13.31 0l85.34 128c1.656 2.453 1.812 5.578 .375 8.203C341.7 438.4 338.9 440 336 440h-224c-3.031 0-5.75-1.672-7.125-4.391c-1.375-2.688-1.125-5.875 .6562-8.312l46.69-64.03C153.7 361.2 156.1 360 158.7 360c2.562 0 4.969 1.219 6.469 3.297L184.1 389.4zM400 64h-64V8C336 3.578 332.4 0 328 0S320 3.578 320 8V64H128V8C128 3.578 124.4 0 120 0S112 3.578 112 8V64h-64C21.5 64 0 85.5 0 112v352C0 490.5 21.5 512 48 512h352c26.5 0 48-21.5 48-48v-352C448 85.5 426.5 64 400 64zM432 464c0 17.64-14.36 32-32 32h-352c-17.64 0-32-14.36-32-32v-256h416V464zM432 192h-416V112c0-17.64 14.36-32 32-32h64V128c0 4.422 3.594 8 8 8S128 132.4 128 128V80h192V128c0 4.422 3.594 8 8 8S336 132.4 336 128V80h64c17.64 0 32 14.36 32 32V192zM128 328c22.06 0 40-17.94 40-40S150.1 248 128 248S88 265.9 88 288S105.9 328 128 328zM128 264c13.22 0 24 10.77 24 24S141.2 312 128 312S104 301.2 104 288S114.8 264 128 264z"/></svg>

<svg xmlns="http://www.w3.org/2000/svg" viewBox="0 0 448 512"><!-- Font Awesome Pro 6.0.0-alpha2 by @fontawesome - https://fontawesome.com License - https://fontawesome.com/license (Commercial License) --><path d="M139.281 353.859L92.594 417.875C87.25 425.234 86.5 434.813 90.625 442.859C94.719 450.969 102.906 456 112 456H336C344.875 456 352.969 451.141 357.125 443.344C361.344 435.531 360.906 426.078 355.969 418.688L270.625 290.688C261.687 277.312 239.625 277.312 230.687 290.688L183.562 361.391L178.062 353.891C169.156 341.484 148.219 341.484 139.281 353.859ZM184.125 389.359L244 299.562C247 295.094 254.312 295.094 257.312 299.562L342.656 427.578C344.312 430.031 344.469 433.156 343.031 435.781C341.656 438.375 338.938 440 336 440H112C108.969 440 106.25 438.328 104.875 435.609C103.5 432.922 103.75 429.734 105.531 427.297L152.219 363.266C153.719 361.219 156.125 360 158.656 360C161.219 360 163.625 361.219 165.125 363.297L184.125 389.359ZM400 64H336V8C336 3.578 332.406 0 328 0S320 3.578 320 8V64H128V8C128 3.578 124.406 0 120 0S112 3.578 112 8V64H48C21.5 64 0 85.5 0 112V464C0 490.5 21.5 512 48 512H400C426.5 512 448 490.5 448 464V112C448 85.5 426.5 64 400 64ZM432 464C432 481.645 417.645 496 400 496H48C30.355 496 16 481.645 16 464V208H432V464ZM432 192H16V112C16 94.355 30.355 80 48 80H112V128C112 132.422 115.594 136 120 136S128 132.422 128 128V80H320V128C320 132.422 323.594 136 328 136S336 132.422 336 128V80H400C417.645 80 432 94.355 432 112V192ZM128 328C150.062 328 168 310.062 168 288S150.062 248 128 248S88 265.938 88 288S105.938 328 128 328ZM128 264C141.219 264 152 274.766 152 288S141.219 312 128 312S104 301.234 104 288S114.781 264 128 264Z"/></svg>
